dist/img/svg/Logo.svg

<svg width="120" height="26" viewBox="0 0 120 26" fill="none" xmlns="http://www.w3.org/2000/svg">
<g clip-path="url(#clip0_2_3)">
<mask id="mask0_2_3" style="mask-type:alpha" maskUnits="userSpaceOnUse" x="0" y="0" width="42" height="22">
<path d="M0.0117188 0.486328H41.9161V21.7084H0.0117188V0.486328Z" fill="white"/>
</mask>
<g mask="url(#mask0_2_3)">
<path fill-rule="evenodd" clip-rule="evenodd" d="M41.9138 6.03441V0.486328H22.3516V6.03441H28.5593V16.1603H22.3516V21.7084H41.9138V16.1603H35.706V6.03441H41.9138Z" fill="white"/>
<path fill-rule="evenodd" clip-rule="evenodd" d="M6.20799 6.03441H0V0.486328H19.5625V6.03441H13.3545V21.7084H6.20799V6.03441Z" fill="white"/>
</g>
<path fill-rule="evenodd" clip-rule="evenodd" d="M84.2444 0.486328H84.1232V11.9463C84.1232 13.5027 83.8461 14.6344 83.2904 15.3417C82.7464 16.0357 81.9635 16.388 80.9435 16.4015C79.9237 16.388 79.1408 16.0357 78.5967 15.3417C78.0411 14.6344 77.7639 13.5027 77.7639 11.9463V0.486328H70.6172V12.1583C70.6172 15.3317 71.5257 17.7974 73.3427 19.5558C75.1595 21.3141 77.6929 22.1934 80.9435 22.1934H80.9437C84.1942 22.1934 86.7276 21.3141 88.5444 19.5558C90.3614 17.7974 91.27 15.3317 91.27 12.1583V0.486328H84.2444Z" fill="white"/>
<path fill-rule="evenodd" clip-rule="evenodd" d="M119.881 0.486328H114.006L111.756 4.27022L107.223 11.6955L102.689 4.27022L100.439 0.486328H94.5039V21.7084H101.015L101.015 12.464L105.618 19.7983H108.828L113.43 12.464V21.7084H119.941V0.486328H119.881Z" fill="white"/>
<path fill-rule="evenodd" clip-rule="evenodd" d="M53.5111 15.7499C52.7943 15.3156 52.2241 14.6992 51.8002 13.9006C51.3762 13.1024 51.1642 12.1678 51.1642 11.0962C51.1642 10.0252 51.3762 9.09059 51.8002 8.29176C52.2241 7.4936 52.7943 6.87745 53.5111 6.4424C54.2276 6.00802 55.0299 5.7906 55.9185 5.7906C56.8067 5.7906 57.6093 6.00802 58.3261 6.4424C59.0426 6.87745 59.613 7.4936 60.037 8.29176C60.4611 9.09059 60.6729 10.0252 60.6729 11.0962C60.6729 12.1678 60.4611 13.1024 60.037 13.9006C59.613 14.6992 59.0426 15.3156 58.3261 15.7499C57.6093 16.1848 56.8067 16.4017 55.9185 16.4017C55.0299 16.4017 54.2276 16.1848 53.5111 15.7499ZM65.0945 18.4627C65.557 17.9579 65.9717 17.4081 66.3357 16.811C67.3653 15.1237 67.8803 13.2185 67.8803 11.0962C67.8803 8.97403 67.3653 7.06931 66.3357 5.38133C65.3063 3.69402 63.8829 2.37519 62.0658 1.42484C60.2491 0.475172 58.1996 0 55.9185 0C53.637 0 51.5882 0.475172 49.7712 1.42484C47.9544 2.37519 46.531 3.69402 45.5014 5.38133C44.4717 7.06931 43.957 8.97403 43.957 11.0962C43.957 13.2185 44.4717 15.1237 45.5014 16.811C46.531 18.4988 47.9544 19.8178 49.7712 20.7675C51.5882 21.7172 53.637 22.1923 55.9185 22.1923C55.9584 22.1923 55.9976 22.1912 56.0372 22.1908V22.1919C57.517 22.1919 62.5118 22.4734 65.8125 26L69.8958 21.9119C68.5537 20.5189 66.9203 19.3557 65.0945 18.4627Z" fill="white"/>
</g>
<defs>
<clipPath id="clip0_2_3">
<rect width="120" height="26" fill="white"/>
</clipPath>
</defs>
</svg>

<svg width="120" height="26" viewBox="0 0 120 26" fill="none" xmlns="http://www.w3.org/2000/svg"><g clip-path="url(#clip0_2_3)"><mask id="mask0_2_3" style="mask-type:alpha" maskUnits="userSpaceOnUse" x="0" y="0" width="42" height="22"><path d="M.012.486h41.904v21.222H.012V.486z" fill="#fff"/></mask><g mask="url(#mask0_2_3)" fill-rule="evenodd" clip-rule="evenodd" fill="#fff"><path d="M41.914 6.034V.486H22.352v5.548h6.207V16.16h-6.207v5.548h19.562V16.16h-6.208V6.034h6.208zm-35.706 0H0V.486h19.563v5.548h-6.208v15.674H6.207V6.034z"/></g><path fill-rule="evenodd" clip-rule="evenodd" d="M84.244.486h-.12v11.46c0 1.557-.278 2.688-.834 3.396-.544.694-1.327 1.046-2.347 1.06-1.02-.014-1.802-.366-2.346-1.06-.556-.708-.833-1.84-.833-3.396V.486h-7.147v11.672c0 3.174.909 5.64 2.726 7.398 1.816 1.758 4.35 2.637 7.6 2.637 3.251 0 5.785-.879 7.601-2.637 1.817-1.759 2.726-4.224 2.726-7.398V.486h-7.026zm35.637 0h-5.875l-2.25 3.784-4.533 7.425-4.534-7.425-2.25-3.784h-5.935v21.222h6.511v-9.244l4.603 7.334h3.21l4.602-7.334v9.244h6.511V.486h-.06zM53.511 15.75c-.717-.434-1.287-1.05-1.71-1.85-.425-.798-.637-1.732-.637-2.804 0-1.07.212-2.005.636-2.804.424-.798.994-1.415 1.711-1.85.717-.434 1.519-.651 2.407-.651.889 0 1.691.217 2.408.651.717.435 1.287 1.052 1.711 1.85.424.799.636 1.733.636 2.804 0 1.072-.212 2.006-.636 2.805-.424.798-.994 1.415-1.71 1.849-.718.435-1.52.652-2.408.652-.89 0-1.691-.217-2.408-.652zm11.583 2.713c.463-.505.878-1.055 1.242-1.652 1.03-1.687 1.544-3.592 1.544-5.715 0-2.122-.515-4.027-1.544-5.715-1.03-1.687-2.453-3.006-4.27-3.956C60.249.475 58.2 0 55.918 0c-2.281 0-4.33.475-6.147 1.425-1.817.95-3.24 2.269-4.27 3.956-1.03 1.688-1.544 3.593-1.544 5.715 0 2.123.515 4.028 1.544 5.715 1.03 1.688 2.453 3.007 4.27 3.956 1.817.95 3.866 1.425 6.148 1.425l.118-.001c1.48 0 6.475.282 9.776 3.809l4.083-4.088c-1.342-1.393-2.976-2.556-4.802-3.45z" fill="#fff"/></g><defs><clipPath id="clip0_2_3"><path fill="#fff" d="M0 0h120v26H0z"/></clipPath></defs></svg>
